icons/Color/scalable/gimp-tool-foreground-select.svg

<svg height="16" viewBox="0 0 16 16" width="16" xmlns="http://www.w3.org/2000/svg"><g transform="matrix(-.98092788 0 0 .9804097 13.184207 7.893606)"><path d="m-1.3609274-6.5623282h9.2285158v9.2306524h-9.2285158z" fill="#d3d7cf" stroke="#fff" stroke-width=".978082"/><path d="m-2.3615317-7.542476h11.2297308v11.2116251h-11.2297308z" fill="none" stroke="#000" stroke-width="1.018179"/></g><path d="m1 4h11v11h-11z" fill="#babdb6" opacity=".5"/><g stroke-linecap="round" stroke-linejoin="round" stroke-width=".308849" transform="matrix(.83384351274 0 0 1.04976738917 1.38342146529 -1.89805708458)"><path d="m7.6775054 14.989937h-3.2822408c-.9299683 0-1.8506764-.339668-2.1881602-1.307782-.3204812-.91934-.0547041-2.670055 2.0240482-4.0868194h3.883985c2.0787524 1.3077814 2.3385304 3.0962914 1.8599362 4.1413094-.487572 1.064621-1.3128961 1.253292-2.2975684 1.253292z" fill="#73d216" fill-rule="evenodd" stroke="#4e9a06"/><path d="m7.6267926 14.686845-3.2472247-.0068c-.8168692 0-1.6256044-.298359-1.9220449-1.148735-.2815056-.807534.029311-2.345334 1.8552548-3.5897965l3.5663564-.0749361c1.8259428 1.1487346 2.1793568 2.7197326 1.7521297 3.7125856-.4272278.992852-1.050657 1.100871-2.0044713 1.107682z" fill="none" opacity=".21519" stroke="#fff"/></g><ellipse cx="-6.091089" cy="8.015099" rx="2.680497" ry="2.670055" style="fill:#fcaf3e;fill-rule:evenodd;stroke:#c17d11;stroke-width:.308849;stroke-linecap:round;stroke-linejoin:round" transform="matrix(-.88157460215 0 0 .88353747279 1.1194827062 .41416005605)"/><ellipse cx="-6.091083" cy="8.015102" rx="2.35105" ry="2.341892" style="opacity:.196203;fill:none;stroke:#fff;stroke-width:.30885;stroke-linecap:round;stroke-linejoin:round" transform="matrix(-.88157460215 0 0 .88353747279 1.1194827062 .41416005605)"/><path d="m12.499758 3.5002431h-11.99951524v11.9995149h11.99951524z" fill="none" stroke="#000" stroke-width="1.000486"/><g fill="#fff"><g><path d="m0 15h1v1h-1z"/><path d="m2 15h1v1h-1z"/><path d="m4 15h1v1h-1z"/><path d="m6 15h1v1h-1z"/><path d="m8 15h1v1h-1z"/><path d="m10 15h1v1h-1z"/><path d="m12 15h1v1h-1z"/></g><g><path d="m0 3h1v1h-1z"/><path d="m2 3h1v1h-1z"/><path d="m4 3h1v1h-1z"/><path d="m6 3h1v1h-1z"/><path d="m8 3h1v1h-1z"/><path d="m10 3h1v1h-1z"/><path d="m12 3h1v1h-1z"/></g><g transform="rotate(-90)"><path d="m-14 0h1v1h-1z"/><path d="m-12 0h1v1h-1z"/><path d="m-10 0h1v1h-1z"/><path d="m-8 0h1v1h-1z"/><path d="m-6 0h1v1h-1z"/></g><g transform="matrix(0 -1 1 0 12 0)"><path d="m-14 0h1v1h-1z"/><path d="m-12 0h1v1h-1z"/><path d="m-10 0h1v1h-1z"/><path d="m-8 0h1v1h-1z"/><path d="m-6 0h1v1h-1z"/></g></g></svg>

<?xml version="1.0" encoding="UTF-8" standalone="no"?>
<!-- Created with Inkscape (http://www.inkscape.org/) -->

<svg
   xmlns:dc="http://purl.org/dc/elements/1.1/"
   xmlns:cc="http://creativecommons.org/ns#"
   xmlns:rdf="http://www.w3.org/1999/02/22-rdf-syntax-ns#"
   xmlns:svg="http://www.w3.org/2000/svg"
   xmlns="http://www.w3.org/2000/svg"
   xmlns:sodipodi="http://sodipodi.sourceforge.net/DTD/sodipodi-0.dtd"
   xmlns:inkscape="http://www.inkscape.org/namespaces/inkscape"
   inkscape:export-ydpi="90.000000"
   inkscape:export-xdpi="90.000000"
   inkscape:export-filename="/home/jimmac/src/cvs/gnome/gimp/themes/Default/images/stock-layers-16.png"
   width="16"
   height="16"
   id="svg11300"
   sodipodi:version="0.32"
   inkscape:version="0.91+devel r"
   sodipodi:docname="gimp-tool-foreground-select.svg"
   version="1.0"
   viewBox="0 0 16 16">
  <sodipodi:namedview
     inkscape:cy="7.1434333"
     inkscape:cx="-16.420807"
     inkscape:zoom="16"
     inkscape:window-height="1016"
     inkscape:window-width="1920"
     inkscape:pageshadow="2"
     inkscape:pageopacity="0.0"
     borderopacity="0.17254902"
     bordercolor="#666"
     pagecolor="#ffffff"
     id="base"
     inkscape:showpageshadow="false"
     showborder="true"
     inkscape:window-x="0"
     inkscape:window-y="27"
     inkscape:current-layer="layer1"
     width="16px"
     height="16px"
     showgrid="true"
     inkscape:window-maximized="1"
     inkscape:document-units="px"
     inkscape:snap-global="false"
     showguides="true">
    <inkscape:grid
       type="xygrid"
       id="grid4810" />
  </sodipodi:namedview>
  <defs
     id="defs3" />
  <sodipodi:namedview
     stroke="#ef2929"
     fill="#eeeeec"
     pagecolor="#ffffff"
     bordercolor="#666666"
     borderopacity="0.25490196"
     inkscape:pageopacity="0.0"
     inkscape:pageshadow="2"
     inkscape:zoom="1"
     inkscape:cx="-14.198652"
     inkscape:cy="-5.1663457"
     inkscape:current-layer="layer1"
     showgrid="false"
     inkscape:grid-bbox="true"
     inkscape:document-units="px"
     inkscape:showpageshadow="false"
     inkscape:window-width="872"
     inkscape:window-height="659"
     inkscape:window-x="403"
     inkscape:window-y="296"
     width="32px"
     height="32px"
     id="namedview73" />
  <metadata
     id="metadata4">
    <rdf:RDF>
      <cc:Work
         rdf:about="">
        <dc:format>image/svg+xml</dc:format>
        <dc:type
           rdf:resource="http://purl.org/dc/dcmitype/StillImage" />
        <dc:creator>
          <cc:Agent>
            <dc:title>Jakub Steiner</dc:title>
          </cc:Agent>
        </dc:creator>
        <dc:source>http://jimmac.musichall.cz</dc:source>
        <cc:license
           rdf:resource="http://creativecommons.org/licenses/by-sa/2.0/" />
        <dc:title />
      </cc:Work>
      <cc:License
         rdf:about="http://creativecommons.org/licenses/by-sa/2.0/">
        <cc:permits
           rdf:resource="http://web.resource.org/cc/Reproduction" />
        <cc:permits
           rdf:resource="http://web.resource.org/cc/Distribution" />
        <cc:requires
           rdf:resource="http://web.resource.org/cc/Notice" />
        <cc:requires
           rdf:resource="http://web.resource.org/cc/Attribution" />
        <cc:permits
           rdf:resource="http://web.resource.org/cc/DerivativeWorks" />
        <cc:requires
           rdf:resource="http://web.resource.org/cc/ShareAlike" />
      </cc:License>
    </rdf:RDF>
  </metadata>
  <g
     id="layer1"
     inkscape:label="Layer 1"
     inkscape:groupmode="layer">
    <g
       id="g4064">
      <g
         transform="matrix(-0.98092788,0,0,0.9804097,13.184207,7.8936064)"
         id="g4133">
        <path
           style="opacity:1;fill:#d3d7cf;fill-opacity:1;stroke:#ffffff;stroke-width:0.97808182;stroke-miterlimit:4;stroke-dasharray:none;stroke-opacity:1"
           d="M -1.3609274,-6.5623282 H 7.8675884 V 2.6683242 H -1.3609274 Z"
           id="rect4014-0"
           inkscape:connector-curvature="0" />
        <path
           style="opacity:1;fill:none;fill-opacity:1;stroke:#000000;stroke-width:1.0181787;stroke-miterlimit:4;stroke-dasharray:none;stroke-opacity:1"
           d="M -2.3615317,-7.542476 H 8.8681991 V 3.6691491 H -2.3615317 Z"
           id="rect4014-3-5-4"
           inkscape:connector-curvature="0" />
      </g>
      <rect
         y="4"
         x="1"
         height="11"
         width="11"
         id="rect4113"
         style="opacity:0.5;fill:#babdb6;fill-opacity:1;stroke:none;stroke-width:1.09195209;stroke-linecap:square;stroke-linejoin:miter;stroke-miterlimit:4;stroke-dasharray:none;stroke-opacity:1;paint-order:stroke fill markers" />
      <g
         transform="matrix(0.99983241,0,0,0.99804861,1.0043767,-0.47420871)"
         id="g4111">
        <g
           id="g4826"
           transform="matrix(0.83398328,0,0,1.0518199,0.37910829,-1.4266322)">
          <path
             inkscape:connector-curvature="0"
             sodipodi:nodetypes="cczcczc"
             id="path4308"
             d="M 7.6775054,14.989937 H 4.3952646 c -0.9299683,0 -1.8506764,-0.339668 -2.1881602,-1.307782 C 1.8866232,12.762815 2.1524003,11.0121 4.2311526,9.5953356 h 3.883985 c 2.0787524,1.3077814 2.3385304,3.0962914 1.8599362,4.1413094 -0.487572,1.064621 -1.3128961,1.253292 -2.2975684,1.253292 z"
             style="color:#000000;display:inline;overflow:visible;visibility:visible;opacity:1;fill:#73d216;fill-opacity:1;fill-rule:evenodd;stroke:#4e9a06;stroke-width:0.3088493px;stroke-linecap:round;stroke-linejoin:round;stroke-miterlimit:4;stroke-dasharray:none;stroke-dashoffset:0;stroke-opacity:1;marker:none;marker-start:none;marker-mid:none;marker-end:none" />
          <path
             inkscape:connector-curvature="0"
             style="color:#000000;display:inline;overflow:visible;visibility:visible;opacity:0.21518986;fill:none;fill-opacity:1;fill-rule:evenodd;stroke:#ffffff;stroke-width:0.30884925px;stroke-linecap:round;stroke-linejoin:round;stroke-miterlimit:4;stroke-dasharray:none;stroke-dashoffset:0;stroke-opacity:1;marker:none;marker-start:none;marker-mid:none;marker-end:none"
             d="m 7.6267926,14.686845 -3.2472247,-0.0068 c -0.8168692,0 -1.6256044,-0.298359 -1.9220449,-1.148735 C 2.1760174,12.723776 2.486834,11.185976 4.3127778,9.9415135 L 7.8791342,9.8665774 C 9.705077,11.015312 10.058491,12.58631 9.6312639,13.579163 9.2040361,14.572015 8.5806069,14.680034 7.6267926,14.686845 Z"
             id="path4314"
             sodipodi:nodetypes="cczcczc" />
        </g>
        <g
           id="g4822"
           transform="matrix(0.88172237,0,0,0.88526497,0.11512501,0.89010591)">
          <ellipse
             ry="2.6700549"
             rx="2.6804965"
             transform="scale(-1,1)"
             cy="8.0150986"
             cx="-6.0910892"
             id="path4320"
             style="color:#000000;display:inline;overflow:visible;visibility:visible;opacity:1;fill:#fcaf3e;fill-opacity:1;fill-rule:evenodd;stroke:#c17d11;stroke-width:0.3088493px;stroke-linecap:round;stroke-linejoin:round;stroke-miterlimit:4;stroke-dasharray:none;stroke-dashoffset:0;stroke-opacity:1;marker:none;marker-start:none;marker-mid:none;marker-end:none" />
          <ellipse
             ry="2.341892"
             rx="2.3510501"
             cy="8.0151024"
             cx="-6.091083"
             transform="scale(-1,1)"
             style="color:#000000;display:inline;overflow:visible;visibility:visible;opacity:0.19620254;fill:none;fill-opacity:1;fill-rule:evenodd;stroke:#ffffff;stroke-width:0.30884957px;stroke-linecap:round;stroke-linejoin:round;stroke-miterlimit:4;stroke-dasharray:none;stroke-dashoffset:0;stroke-opacity:1;marker:none;marker-start:none;marker-mid:none;marker-end:none"
             id="path4322" />
        </g>
      </g>
      <path
         style="opacity:1;fill:none;fill-opacity:1;stroke:#000000;stroke-width:1.00048554;stroke-miterlimit:4;stroke-dasharray:none;stroke-opacity:1"
         d="M 12.499758,3.5002431 H 0.50024276 V 15.499758 H 12.499758 Z"
         id="rect4014-3-5-4-0"
         inkscape:connector-curvature="0" />
      <g
         style="fill:#ffffff;fill-opacity:1"
         id="g4184">
        <rect
           style="opacity:1;fill:#ffffff;fill-opacity:1;stroke:none;stroke-width:0.53427851;stroke-linecap:square;stroke-linejoin:miter;stroke-miterlimit:4;stroke-dasharray:none;stroke-opacity:1;paint-order:stroke fill markers"
           id="rect4115"
           width="1"
           height="1"
           x="0"
           y="15" />
        <rect
           style="opacity:1;fill:#ffffff;fill-opacity:1;stroke:none;stroke-width:0.53427851;stroke-linecap:square;stroke-linejoin:miter;stroke-miterlimit:4;stroke-dasharray:none;stroke-opacity:1;paint-order:stroke fill markers"
           id="rect4115-4"
           width="1"
           height="1"
           x="2"
           y="15" />
        <rect
           style="opacity:1;fill:#ffffff;fill-opacity:1;stroke:none;stroke-width:0.53427851;stroke-linecap:square;stroke-linejoin:miter;stroke-miterlimit:4;stroke-dasharray:none;stroke-opacity:1;paint-order:stroke fill markers"
           id="rect4115-44"
           width="1"
           height="1"
           x="4"
           y="15" />
        <rect
           style="opacity:1;fill:#ffffff;fill-opacity:1;stroke:none;stroke-width:0.53427851;stroke-linecap:square;stroke-linejoin:miter;stroke-miterlimit:4;stroke-dasharray:none;stroke-opacity:1;paint-order:stroke fill markers"
           id="rect4115-5"
           width="1"
           height="1"
           x="6"
           y="15" />
        <rect
           style="opacity:1;fill:#ffffff;fill-opacity:1;stroke:none;stroke-width:0.53427851;stroke-linecap:square;stroke-linejoin:miter;stroke-miterlimit:4;stroke-dasharray:none;stroke-opacity:1;paint-order:stroke fill markers"
           id="rect4115-7"
           width="1"
           height="1"
           x="8"
           y="15" />
        <rect
           style="opacity:1;fill:#ffffff;fill-opacity:1;stroke:none;stroke-width:0.53427851;stroke-linecap:square;stroke-linejoin:miter;stroke-miterlimit:4;stroke-dasharray:none;stroke-opacity:1;paint-order:stroke fill markers"
           id="rect4115-1"
           width="1"
           height="1"
           x="10"
           y="15" />
        <rect
           style="opacity:1;fill:#ffffff;fill-opacity:1;stroke:none;stroke-width:0.53427851;stroke-linecap:square;stroke-linejoin:miter;stroke-miterlimit:4;stroke-dasharray:none;stroke-opacity:1;paint-order:stroke fill markers"
           id="rect4115-2"
           width="1"
           height="1"
           x="12"
           y="15" />
      </g>
      <g
         style="fill:#ffffff;fill-opacity:1"
         transform="translate(0,-12)"
         id="g4184-0">
        <rect
           style="opacity:1;fill:#ffffff;fill-opacity:1;stroke:none;stroke-width:0.53427851;stroke-linecap:square;stroke-linejoin:miter;stroke-miterlimit:4;stroke-dasharray:none;stroke-opacity:1;paint-order:stroke fill markers"
           id="rect4115-9"
           width="1"
           height="1"
           x="0"
           y="15" />
        <rect
           style="opacity:1;fill:#ffffff;fill-opacity:1;stroke:none;stroke-width:0.53427851;stroke-linecap:square;stroke-linejoin:miter;stroke-miterlimit:4;stroke-dasharray:none;stroke-opacity:1;paint-order:stroke fill markers"
           id="rect4115-4-9"
           width="1"
           height="1"
           x="2"
           y="15" />
        <rect
           style="opacity:1;fill:#ffffff;fill-opacity:1;stroke:none;stroke-width:0.53427851;stroke-linecap:square;stroke-linejoin:miter;stroke-miterlimit:4;stroke-dasharray:none;stroke-opacity:1;paint-order:stroke fill markers"
           id="rect4115-44-8"
           width="1"
           height="1"
           x="4"
           y="15" />
        <rect
           style="opacity:1;fill:#ffffff;fill-opacity:1;stroke:none;stroke-width:0.53427851;stroke-linecap:square;stroke-linejoin:miter;stroke-miterlimit:4;stroke-dasharray:none;stroke-opacity:1;paint-order:stroke fill markers"
           id="rect4115-5-3"
           width="1"
           height="1"
           x="6"
           y="15" />
        <rect
           style="opacity:1;fill:#ffffff;fill-opacity:1;stroke:none;stroke-width:0.53427851;stroke-linecap:square;stroke-linejoin:miter;stroke-miterlimit:4;stroke-dasharray:none;stroke-opacity:1;paint-order:stroke fill markers"
           id="rect4115-7-9"
           width="1"
           height="1"
           x="8"
           y="15" />
        <rect
           style="opacity:1;fill:#ffffff;fill-opacity:1;stroke:none;stroke-width:0.53427851;stroke-linecap:square;stroke-linejoin:miter;stroke-miterlimit:4;stroke-dasharray:none;stroke-opacity:1;paint-order:stroke fill markers"
           id="rect4115-1-7"
           width="1"
           height="1"
           x="10"
           y="15" />
        <rect
           style="opacity:1;fill:#ffffff;fill-opacity:1;stroke:none;stroke-width:0.53427851;stroke-linecap:square;stroke-linejoin:miter;stroke-miterlimit:4;stroke-dasharray:none;stroke-opacity:1;paint-order:stroke fill markers"
           id="rect4115-2-7"
           width="1"
           height="1"
           x="12"
           y="15" />
      </g>
      <g
         style="fill:#ffffff;fill-opacity:1"
         id="g4254">
        <rect
           style="opacity:1;fill:#ffffff;fill-opacity:1;stroke:none;stroke-width:0.53427851;stroke-linecap:square;stroke-linejoin:miter;stroke-miterlimit:4;stroke-dasharray:none;stroke-opacity:1;paint-order:stroke fill markers"
           id="rect4115-6"
           width="1"
           height="1"
           x="-14"
           y="2e-08"
           transform="rotate(-90)" />
        <rect
           style="opacity:1;fill:#ffffff;fill-opacity:1;stroke:none;stroke-width:0.53427851;stroke-linecap:square;stroke-linejoin:miter;stroke-miterlimit:4;stroke-dasharray:none;stroke-opacity:1;paint-order:stroke fill markers"
           id="rect4115-4-5"
           width="1"
           height="1"
           x="-12"
           y="2e-08"
           transform="rotate(-90)" />
        <rect
           style="opacity:1;fill:#ffffff;fill-opacity:1;stroke:none;stroke-width:0.53427851;stroke-linecap:square;stroke-linejoin:miter;stroke-miterlimit:4;stroke-dasharray:none;stroke-opacity:1;paint-order:stroke fill markers"
           id="rect4115-44-4"
           width="1"
           height="1"
           x="-10"
           y="2e-08"
           transform="rotate(-90)" />
        <rect
           style="opacity:1;fill:#ffffff;fill-opacity:1;stroke:none;stroke-width:0.53427851;stroke-linecap:square;stroke-linejoin:miter;stroke-miterlimit:4;stroke-dasharray:none;stroke-opacity:1;paint-order:stroke fill markers"
           id="rect4115-5-2"
           width="1"
           height="1"
           x="-8"
           y="2e-08"
           transform="rotate(-90)" />
        <rect
           style="opacity:1;fill:#ffffff;fill-opacity:1;stroke:none;stroke-width:0.53427851;stroke-linecap:square;stroke-linejoin:miter;stroke-miterlimit:4;stroke-dasharray:none;stroke-opacity:1;paint-order:stroke fill markers"
           id="rect4115-7-4"
           width="1"
           height="1"
           x="-6"
           y="2e-08"
           transform="rotate(-90)" />
      </g>
      <g
         style="fill:#ffffff;fill-opacity:1"
         transform="translate(12)"
         id="g4254-7">
        <rect
           style="opacity:1;fill:#ffffff;fill-opacity:1;stroke:none;stroke-width:0.53427851;stroke-linecap:square;stroke-linejoin:miter;stroke-miterlimit:4;stroke-dasharray:none;stroke-opacity:1;paint-order:stroke fill markers"
           id="rect4115-6-0"
           width="1"
           height="1"
           x="-14"
           y="2e-08"
           transform="rotate(-90)" />
        <rect
           style="opacity:1;fill:#ffffff;fill-opacity:1;stroke:none;stroke-width:0.53427851;stroke-linecap:square;stroke-linejoin:miter;stroke-miterlimit:4;stroke-dasharray:none;stroke-opacity:1;paint-order:stroke fill markers"
           id="rect4115-4-5-8"
           width="1"
           height="1"
           x="-12"
           y="2e-08"
           transform="rotate(-90)" />
        <rect
           style="opacity:1;fill:#ffffff;fill-opacity:1;stroke:none;stroke-width:0.53427851;stroke-linecap:square;stroke-linejoin:miter;stroke-miterlimit:4;stroke-dasharray:none;stroke-opacity:1;paint-order:stroke fill markers"
           id="rect4115-44-4-6"
           width="1"
           height="1"
           x="-10"
           y="2e-08"
           transform="rotate(-90)" />
        <rect
           style="opacity:1;fill:#ffffff;fill-opacity:1;stroke:none;stroke-width:0.53427851;stroke-linecap:square;stroke-linejoin:miter;stroke-miterlimit:4;stroke-dasharray:none;stroke-opacity:1;paint-order:stroke fill markers"
           id="rect4115-5-2-1"
           width="1"
           height="1"
           x="-8"
           y="2e-08"
           transform="rotate(-90)" />
        <rect
           style="opacity:1;fill:#ffffff;fill-opacity:1;stroke:none;stroke-width:0.53427851;stroke-linecap:square;stroke-linejoin:miter;stroke-miterlimit:4;stroke-dasharray:none;stroke-opacity:1;paint-order:stroke fill markers"
           id="rect4115-7-4-9"
           width="1"
           height="1"
           x="-6"
           y="2e-08"
           transform="rotate(-90)" />
      </g>
    </g>
  </g>
</svg>
